X:1
T:Title
%%score { ( 1 3 ) | ( 2 4 ) }
L:1/8
Q:1/4=100
M:4/4
K:Bb
V:1 treble nm="Grand Piano"
V:3 treble 
V:2 bass 
V:4 bass 
V:1
 [DF]2 [DF]2 [B,D][CE][DF][EG] | [DF]2 [DB]2 [Fd]4 | [Gc]2 G2 A2 c2 | B4 z4 | %4
w: Ira~B.~Wilson * * * * *||||
 [DF]2 [DF]2 [B,D][CE][DF][EG] | [DF]2 [DB]2 [Fd]4 | [Fc]3 [FA] [=EA]2 [EG]2 | F6[K:bass] z2 | %8
w: ||||
 z4[K:treble] z2 [DF]2 | d2- [DFd]2 B2- [DFB]2 | [B,D]>E [F,DF]2 [F,DF]2 [DB]2 | %11
w: |||
 A2- [EA-]2 [EA]2 F>F | e>e e>d c2 F>F | [Fd]>[Fd] [Fd]>[Ec] [DB]2 [B,FB]>[B,FB] | %14
w: |||
 [CFA]2 [DFB]2 [CFA]2 [B,=EG]2 | [A,F]6 z2 | [B,D]>[CE] [DF]>[EG] [DF]2 [DB]>[Ec] | %17
w: |||
 [Fd]4 [DB]2 [DF]>F | G>G G>G e2 d2 | [Ec]6 z2 | B2 G2 B2 G2 | B2 F2 G2 [EGc]2 | B>B B>B A2 G>A | %23
w: ||||||
 [DB]6 z2 |] %24
w: |
V:2
 [B,,B,]2 [B,,B,]2 [B,,F,]2 [B,,B,]2 | [B,,B,]2 [B,,F,]2 [B,,B,]4 | %2
 [E,B,]2 [E,CE]2 [F,CE]2 [F,A,E]2 | z4[K:treble] F2 z2 | [B,,B,]2 [B,,B,]2 [B,,F,]2 [B,,B,]2 | %5
 [B,,B,]2 [B,,F,]2 [B,,B,]4 | [C,A,]3 [C,C] [C,C]2 [C,B,]2 | [F,A,]6 z2 | %8
 B,>C z z/ G/ B,,2 [F,,F,]2 | [B,,F,]2 [F,,F,]2 [B,,F,]2 [F,,F,]2 | z z/ C/ z z/ G/ B,,2 [F,,F,]2 | %11
 [C,F,]2 [F,,F,]2 [C,F,]2 F,>F, | [F,CF]>[F,CF] [F,CF]>[F,B,F] [F,A,F]2 F,>F, | %13
 [B,,B,]>[B,,B,] [B,,B,]>[B,,B,] [B,,B,]2 D,>D, | C,2 C,2 C,2 C,2 | F,6 z2 | %16
 [B,,F,]2 [B,,B,]2 [B,,B,]2 [B,,F,]2 | [B,,B,]2 [B,,B,]2 [B,,F,]2 z z/ D/ | %18
 E>E E>[K:treble]E [G,=B,F]2 [G,F]2 | [C,G,]2 C,2 C,2 [E,G,C]>[E,G,C] | %20
 [=E,G,_D]2 [E,B,D]2 [E,G,D]2 [E,B,D]2 | [F,B,D]2 [D,B,]2 [E,B,E]2 C,2 | %22
 [F,DF]>[F,DF] [F,DF]>[F,DF] [F,CE]2 [F,A,E]>[F,E] | [B,,F,]6 z2 |] %24
V:3
 x8 | x8 | x8 | [B,D]6 z2 | x8 | x8 | x8 | z2[K:bass] E,2 D,2 C,2 | %8
 D>E[K:treble] [F,DF]2 [F,DF]2 B>c | [DF]2 z2 [DF]2 z2 | x8 | E2 z2 z4 | x8 | x8 | x8 | x8 | x8 | %17
 x8 | x8 | z2 G,2 G,2 G>A | x8 | x8 | x8 | x8 |] %24
V:4
 x8 | x8 | x8 | B,,6[K:treble] z2 | x8 | x8 | x8 | x8 | [B,,F,]2 F,,2 z4 | x8 | [B,,F,]2 F,,2 z4 | %11
 x8 | x8 | x8 | x8 | z2 E,2 D,2 C,2 | x8 | z4 z2 [B,,B,]2 | [E,B,]2 [E,B,]2[K:treble] z4 | x8 | %20
 x8 | x8 | x8 | x8 |] %24

